src/ios-email-outline.svg

<?xml version="1.0" encoding="utf-8"?>
<!-- Generated by IcoMoon.io -->
<!DOCTYPE svg PUBLIC "-//W3C//DTD SVG 1.1//EN" "http://www.w3.org/Graphics/SVG/1.1/DTD/svg11.dtd">
<svg version="1.1" xmlns="http://www.w3.org/2000/svg" xmlns:xlink="http://www.w3.org/1999/xlink" width="512" height="512" viewBox="0 0 512 512">
<path fill="#000000" d="M64 128v256h384v-256h-384zM256 267.9l-162.8-123.9h325.6l-162.8 123.9zM80 368v-213.9l115.1 87.6-68.1 77.3 2 2 78.9-69.6 48.1 36.6 48.1-36.6 78.9 69.6 2-2-68.1-77.4 115.1-87.5v213.9h-352z"></path>
</svg>

<?xml version="1.0" encoding="utf-8"?>
<!-- Generator: Adobe Illustrator 16.2.1, SVG Export Plug-In . SVG Version: 6.00 Build 0)  -->
<!DOCTYPE svg PUBLIC "-//W3C//DTD SVG 1.1//EN" "http://www.w3.org/Graphics/SVG/1.1/DTD/svg11.dtd">
<svg version="1.1" id="Layer_1" xmlns="http://www.w3.org/2000/svg" xmlns:xlink="http://www.w3.org/1999/xlink" x="0px" y="0px"
	 width="512px" height="512px" viewBox="0 0 512 512" style="enable-background:new 0 0 512 512;" xml:space="preserve">
<path d="M64,128v256h384V128H64z M256,267.9L93.2,144h325.6L256,267.9z M80,368V154.1l115.1,87.6L127,319l2,2l78.9-69.6L256,288
	l48.1-36.6L383,321l2-2l-68.1-77.4L432,154.1V368H80z"/>
</svg>
